public/icons/tech/cypress.svg

<svg width="100" height="100" viewBox="0 0 100 100" fill="none" xmlns="http://www.w3.org/2000/svg">
<g id="cypress">
<g id="cypress_2">
<path id="Vector" d="M4.77921 63.2466C3.60024 58.9531 3 54.4935 3 50.0018C3 29.4974 15.8776 10.7491 35.0467 3.35579L37.56 9.86041C21.0597 16.2258 9.97739 32.3562 9.97739 50.0018C9.97739 53.8724 10.4918 57.7056 11.5047 61.3995L4.77921 63.2466Z" fill="#69D3A7"/>
<path id="Vector_2" d="M91.4391 30.1935C83.9796 15.8726 69.2958 6.97489 53.1279 6.97489C47.3991 6.97489 41.8312 8.07773 36.5902 10.2459L33.916 3.80554C40.0091 1.284 46.4721 -0.000854492 53.1279 -0.000854492C71.911 -0.000854492 88.9633 10.3316 97.6287 26.9706L91.4391 30.1935Z" fill="url(#paint0_linear_790_4130)"/>
<path id="Vector_3" d="M38.1605 39.6854C42.2063 39.6854 45.5022 41.8429 47.1957 45.6065L47.3297 45.901L54.1247 43.5935L53.9801 43.2456C51.3488 36.8373 45.2878 32.8542 38.1605 32.8542C33.1497 32.8542 29.0769 34.4604 25.7115 37.7581C22.3674 41.0346 20.6741 45.1569 20.6741 50.0125C20.6741 54.8254 22.3674 58.9262 25.7115 62.2027C29.0769 65.5006 33.1497 67.1067 38.1605 67.1067C45.2878 67.1067 51.3488 63.1235 53.9801 56.7206L54.1247 56.3727L47.3188 54.0598L47.1903 54.365C45.6736 58.0644 42.2976 60.2754 38.1605 60.2754C35.3415 60.2754 32.9622 59.2904 31.0757 57.3523C29.168 55.3875 28.2034 52.9196 28.2034 50.0179C28.2034 47.0948 29.1465 44.675 31.0757 42.6192C32.9567 40.6706 35.3415 39.6854 38.1605 39.6854Z" fill="white"/>
<path id="Vector_4" d="M80.721 33.486L71.0375 57.9893L61.2896 33.486H53.3154L66.9861 66.9299L57.2596 90.5178L64.2317 91.9045L88.2558 33.486H80.721Z" fill="white"/>
<path id="Vector_5" d="M58.5071 87.4771L56.8083 91.5887C56.4706 92.4025 55.6989 92.9537 54.8308 92.9912C54.2575 93.0127 53.6787 93.0287 53.0946 93.0287C33.1002 93.0181 15.4103 78.9221 11.0266 59.4992L4.2207 61.0356C6.68048 71.9302 12.854 81.8183 21.6052 88.8852C30.4583 96.0321 41.6102 99.9777 53.0196 99.9991C53.0356 99.9991 53.1212 99.9991 53.1212 99.9991C53.7912 99.9991 54.4556 99.9831 55.1202 99.9564C58.7 99.8064 61.8994 97.5633 63.2658 94.2387L65.4844 88.8637L58.5071 87.4771Z" fill="url(#paint1_linear_790_4130)"/>
</g>
</g>
<defs>
<linearGradient id="paint0_linear_790_4130" x1="47.9118" y1="-3.22881" x2="85.9637" y2="37.4414" gradientUnits="userSpaceOnUse">
<stop offset="0.0939" stop-color="#58D09E"/>
<stop offset="0.9883" stop-color="#58D09E" stop-opacity="0"/>
</linearGradient>
<linearGradient id="paint1_linear_790_4130" x1="2.4658" y1="72.7523" x2="75.1625" y2="92.1017" gradientUnits="userSpaceOnUse">
<stop offset="0.0774" stop-color="#58D09E"/>
<stop offset="0.7617" stop-color="#1B1E2E"/>
</linearGradient>
</defs>
</svg>

<svg xmlns="http://www.w3.org/2000/svg" fill="none" viewBox="0 0 100 100"><path fill="#69D3A7" d="M4.78 63.246A50 50 0 0 1 3 50.001C3 29.497 15.878 10.75 35.047 3.355L37.56 9.86C21.06 16.225 9.977 32.356 9.977 50a43 43 0 0 0 1.528 11.398z"/><path fill="url(#a)" d="M91.44 30.193C83.98 15.873 69.295 6.974 53.127 6.974a43.1 43.1 0 0 0-16.538 3.271l-2.674-6.44A50 50 0 0 1 53.128-.001c18.783 0 35.835 10.332 44.5 26.971z"/><path fill="#1B1E2E" d="M38.16 39.685c4.046 0 7.342 2.157 9.036 5.921l.134.295 6.795-2.308-.145-.348c-2.631-6.408-8.692-10.391-15.82-10.391-5.01 0-9.083 1.606-12.448 4.904-3.345 3.276-5.038 7.398-5.038 12.254 0 4.813 1.693 8.914 5.038 12.19 3.365 3.298 7.438 4.904 12.449 4.904 7.127 0 13.188-3.983 15.82-10.386l.144-.348-6.806-2.313-.129.306c-1.516 3.699-4.892 5.91-9.03 5.91-2.818 0-5.198-.985-7.084-2.923-1.908-1.965-2.873-4.433-2.873-7.335 0-2.923.944-5.343 2.873-7.398 1.88-1.949 4.266-2.934 7.084-2.934"/><path fill="#1B1E2E" d="m80.721 33.486-9.684 24.503-9.747-24.503h-7.975l13.671 33.443-9.726 23.588 6.972 1.387 24.024-58.418z"/><path fill="url(#b)" d="m58.507 87.477-1.699 4.111a2.26 2.26 0 0 1-1.977 1.403c-.574.021-1.152.037-1.736.037-19.995-.01-37.685-14.106-42.068-33.53L4.22 61.036c2.46 10.895 8.633 20.783 17.384 27.85C30.457 96.033 41.609 99.978 53.019 100h.101q1.004-.001 2-.043a9.26 9.26 0 0 0 8.145-5.718l2.218-5.375z"/><defs><linearGradient id="a" x1="47.912" x2="85.964" y1="-3.229" y2="37.441" gradientUnits="userSpaceOnUse"><stop offset=".094" stop-color="#58D09E"/><stop offset=".988" stop-color="#58D09E" stop-opacity="0"/></linearGradient><linearGradient id="b" x1="2.466" x2="75.162" y1="72.752" y2="92.101" gradientUnits="userSpaceOnUse"><stop offset=".077" stop-color="#58D09E"/><stop offset=".762" stop-color="#1B1E2E"/></linearGradient></defs></svg>
